X:135
T: Bridge of Portumna
M: 4/4
L: 1/8
R: reel
C: M.Mulhaire
Z: B.Black
K: A
ed | c2 ec dcBA | EAAG A3 B | cA A2 eA A2 |\
B=G G2 DGBd |
c2 ec dcBA | EAAG A3 B | cAeA aAeA | Bd=GB d2 cd ||
e2 ae beae | (3efe ae d2 cd | B=g g2 bg g2 |\
edBc d2 cd |
e2 ae beae | (3efe ae d2 cd | B=g g2 bg g2 |\
edBc d2 ed ||
ceAc eAce | aeca ecae | fedc dcBA | GABc dfed |
ceAc eAce | aeca ecae | fedc dfaf | ecdB A4 ||
